public/img/rewind.svg

<svg xmlns="http://www.w3.org/2000/svg" width="69" height="51">
  <path d="M2.1 28.4l35.5 22.1c.9.6 2.1.6 3 .1.9-.5 1.5-1.5 1.5-2.6V36.9L64 50.5c.9.6 2.1.6 3 .1.9-.5 1.5-1.5 1.5-2.6V3.8c0-1.1-.6-2.1-1.5-2.6-.5-.2-.9-.4-1.4-.4-.5 0-1.1.1-1.6.4L42.1 14.9V3.8c0-1.1-.6-2.1-1.5-2.6-.5-.2-.9-.4-1.4-.4-.5 0-1.1.1-1.6.4L2.1 23.4c-.9.5-1.4 1.5-1.4 2.5s.6 2 1.4 2.5zM62.6 9.1v33.6L42.1 29.9v-8.1L62.6 9.1zm-26.4 0v33.6L9.3 25.9 36.2 9.1z"/>
</svg>

<?xml version="1.0" encoding="UTF-8"?>
<svg width="69px" height="51px" viewBox="0 0 69 51" version="1.1" xmlns="http://www.w3.org/2000/svg" xmlns:xlink="http://www.w3.org/1999/xlink">
    <!-- Generator: Sketch 47 (45396) - http://www.bohemiancoding.com/sketch -->
    <title>Shape</title>
    <desc>Created with Sketch.</desc>
    <defs></defs>
    <g id="Page-1" stroke="none" stroke-width="1" fill="none" fill-rule="evenodd">
        <g id="noun_384109_cc" fill-rule="nonzero" fill="#000000">
            <path d="M2.1,28.4 L37.6,50.5 C38.5,51.1 39.7,51.1 40.6,50.6 C41.5,50.1 42.1,49.1 42.1,48 L42.1,36.9 L64,50.5 C64.9,51.1 66.1,51.1 67,50.6 C67.9,50.1 68.5,49.1 68.5,48 L68.5,3.8 C68.5,2.7 67.9,1.7 67,1.2 C66.5,1 66.1,0.8 65.6,0.8 C65.1,0.8 64.5,0.9 64,1.2 L42.1,14.9 L42.1,3.8 C42.1,2.7 41.5,1.7 40.6,1.2 C40.1,1 39.7,0.8 39.2,0.8 C38.7,0.8 38.1,0.9 37.6,1.2 L2.1,23.4 C1.2,23.9 0.7,24.9 0.7,25.9 C0.7,26.9 1.3,27.9 2.1,28.4 Z M62.6,9.1 L62.6,42.7 L42.1,29.9 L42.1,21.8 L62.6,9.1 Z M36.2,9.1 L36.2,20.2 L36.2,31.6 L36.2,42.7 L9.3,25.9 L36.2,9.1 Z" id="Shape"></path>
        </g>
    </g>
</svg>
